paymentMethods/mastercard.svg

<svg width="128" height="64" viewBox="0 0 128 64" fill="none" xmlns="http://www.w3.org/2000/svg">
<rect width="128" height="64" rx="6" fill="white"/>
<path d="M43.5061 56.8452V53.5265C43.5442 53.0058 43.3739 52.4913 43.0326 52.0961C42.6914 51.7009 42.2071 51.4574 41.6864 51.4192C41.6035 51.4137 41.5204 51.4137 41.4375 51.4192C41.0718 51.3941 40.706 51.4681 40.3789 51.6337C40.0518 51.7992 39.7755 52.0499 39.5791 52.3595C39.3997 52.0571 39.141 51.8095 38.8309 51.6438C38.5209 51.478 38.1713 51.4004 37.8202 51.4192C37.5159 51.4027 37.2125 51.4666 36.9407 51.6045C36.6688 51.7423 36.438 51.9493 36.2715 52.2046V51.5575H35.1211V56.8452H36.2826V53.9358C36.2349 53.6111 36.3175 53.2807 36.5122 53.0166C36.7069 52.7524 36.9982 52.5759 37.3224 52.5254V52.5254C37.4016 52.5199 37.4811 52.5199 37.5603 52.5254C38.3235 52.5254 38.7107 53.0232 38.7107 53.9192V56.8617H39.8722V53.9303C39.8497 53.7671 39.8598 53.601 39.902 53.4417C39.9442 53.2825 40.0176 53.1332 40.1179 53.0025C40.2182 52.8718 40.3435 52.7623 40.4865 52.6804C40.6295 52.5985 40.7873 52.5458 40.9508 52.5254V52.5254C41.0241 52.5144 41.0987 52.5144 41.172 52.5254C41.9574 52.5254 42.3335 53.0232 42.3335 53.9192V56.8617L43.5061 56.8452ZM60.691 51.5575H58.7994V49.9535H57.6379V51.5575H56.587V52.6084H57.66V55.042C57.66 56.2699 58.1357 57 59.4963 57C60.0041 56.9982 60.5017 56.8566 60.9343 56.5907L60.6025 55.6062C60.2925 55.7868 59.9432 55.8893 59.5848 55.9049C59.0317 55.9049 58.8215 55.5509 58.8215 55.0199V52.6084H60.7242L60.691 51.5575ZM70.503 51.4192C70.2224 51.4104 69.9447 51.4777 69.6992 51.614C69.4538 51.7504 69.2499 51.9506 69.1092 52.1936V51.5575H67.9698V56.8452H69.1203V53.8805C69.1203 53.0066 69.4964 52.5199 70.2265 52.5199C70.4728 52.5136 70.7177 52.5588 70.9455 52.6526L71.2995 51.5464C71.0359 51.4576 70.759 51.4145 70.4809 51.4192H70.503ZM55.6688 51.9723C55.0238 51.5898 54.2835 51.398 53.5338 51.4192C52.1953 51.4192 51.3214 52.0608 51.3214 53.1117C51.3214 53.9746 51.963 54.5055 53.1467 54.6715L53.6998 54.7489C54.3303 54.8374 54.629 55.0033 54.629 55.302C54.629 55.7113 54.2086 55.9436 53.4232 55.9436C52.7917 55.9606 52.1725 55.7659 51.6644 55.3905L51.1113 56.2865C51.7847 56.7452 52.5867 56.9777 53.4011 56.9502C54.9277 56.9502 55.8126 56.2312 55.8126 55.2246C55.8126 54.2179 55.1157 53.8086 53.9653 53.6427L53.4122 53.5653C52.9144 53.4989 52.5161 53.3993 52.5161 53.0453C52.5161 52.6914 52.8922 52.4259 53.5228 52.4259C54.1058 52.4309 54.6776 52.5872 55.1821 52.8794L55.6688 51.9723ZM86.4821 51.4192C86.2015 51.4104 85.9238 51.4777 85.6784 51.614C85.4329 51.7504 85.229 51.9506 85.0883 52.1936V51.5575H83.9821V56.8452H85.1326V53.8805C85.1326 53.0066 85.5087 52.5199 86.2388 52.5199C86.4851 52.5136 86.73 52.5588 86.9578 52.6526L87.3118 51.5464C87.0492 51.4518 86.7723 51.4032 86.4932 51.4026L86.4821 51.4192ZM71.659 54.1847C71.6336 54.8924 71.8902 55.5813 72.3725 56.0999C72.8548 56.6184 73.5232 56.9243 74.2309 56.9502H74.4798C75.1701 56.9822 75.8479 56.7576 76.3825 56.3197L75.8294 55.3905C75.4304 55.6913 74.9463 55.8579 74.4466 55.8662C74.0214 55.8318 73.6247 55.6385 73.3354 55.3249C73.0462 55.0113 72.8856 54.6003 72.8856 54.1737C72.8856 53.747 73.0462 53.336 73.3354 53.0224C73.6247 52.7088 74.0214 52.5156 74.4466 52.4812C74.9467 52.4867 75.4317 52.6536 75.8294 52.9568L76.3825 52.0276C75.8462 51.5949 75.1677 51.3779 74.4798 51.4192C73.7743 51.3769 73.0808 51.6164 72.5518 52.0852C72.0229 52.554 71.7017 53.2137 71.659 53.9192V53.9192C71.653 54.0076 71.653 54.0963 71.659 54.1847V54.1847ZM82.4334 54.1847V51.5575H81.283V52.1991C81.0892 51.946 80.8371 51.7434 80.5482 51.6086C80.2593 51.4738 79.9422 51.4107 79.6237 51.4248C78.8902 51.4248 78.1868 51.7161 77.6682 52.2347C77.1495 52.7534 76.8582 53.4568 76.8582 54.1903C76.8582 54.9237 77.1495 55.6271 77.6682 56.1458C78.1868 56.6644 78.8902 56.9558 79.6237 56.9558C79.9418 56.9671 80.258 56.9028 80.5464 56.7682C80.8349 56.6336 81.0873 56.4325 81.283 56.1814V56.823H82.4334V54.1847ZM78.1524 54.1847C78.1683 53.7766 78.3437 53.3911 78.6408 53.1109C78.9379 52.8307 79.3331 52.6782 79.7414 52.6861C80.1497 52.6941 80.5386 52.8619 80.8246 53.1535C81.1105 53.4451 81.2707 53.8372 81.2707 54.2456C81.2707 54.654 81.1105 55.0461 80.8246 55.3377C80.5386 55.6293 80.1497 55.7971 79.7414 55.805C79.3331 55.813 78.9379 55.6605 78.6408 55.3803C78.3437 55.1001 78.1683 54.7145 78.1524 54.3064V54.1847ZM64.2696 51.4192C63.5361 51.4295 62.8368 51.7307 62.3254 52.2566C61.814 52.7825 61.5325 53.49 61.5428 54.2234C61.553 54.9569 61.8542 55.6562 62.3801 56.1676C62.906 56.679 63.6135 56.9605 64.347 56.9502C65.1484 56.9953 65.9376 56.7388 66.5594 56.2312L66.0063 55.3794C65.5683 55.7275 65.028 55.9218 64.4687 55.9325C64.0884 55.9652 63.7103 55.8483 63.4149 55.6066C63.1195 55.3649 62.93 55.0175 62.8868 54.6383H66.8083V54.1847C66.8083 52.5254 65.7795 51.4192 64.2972 51.4192H64.2696ZM64.2696 52.448C64.4414 52.4436 64.6125 52.4732 64.7729 52.5351C64.9333 52.597 65.0799 52.69 65.2043 52.8087C65.3287 52.9274 65.4284 53.0695 65.4977 53.2269C65.567 53.3842 65.6045 53.5537 65.6081 53.7257H62.8426C62.8612 53.3701 63.019 53.0361 63.2819 52.796C63.5448 52.5559 63.8916 52.4289 64.2474 52.4425L64.2696 52.448ZM93.0917 54.1847V49.4336H91.9855V52.1991C91.7917 51.946 91.5396 51.7434 91.2507 51.6086C90.9618 51.4738 90.6447 51.4107 90.3262 51.4248C89.5927 51.4248 88.8893 51.7161 88.3707 52.2347C87.852 52.7534 87.5607 53.4568 87.5607 54.1903C87.5607 54.9237 87.852 55.6271 88.3707 56.1458C88.8893 56.6644 89.5927 56.9558 90.3262 56.9558C90.6443 56.9671 90.9605 56.9028 91.249 56.7682C91.5374 56.6336 91.7898 56.4325 91.9855 56.1814V56.823H93.0917V54.1847ZM88.8383 54.1847C88.8543 53.7766 89.0296 53.3911 89.3267 53.1109C89.6239 52.8307 90.019 52.6782 90.4273 52.6861C90.8357 52.6941 91.2246 52.8619 91.5105 53.1535C91.7965 53.4451 91.9567 53.8372 91.9567 54.2456C91.9567 54.654 91.7965 55.0461 91.5105 55.3377C91.2246 55.6293 90.8357 55.7971 90.4273 55.805C90.019 55.813 89.6239 55.6605 89.3267 55.3803C89.0296 55.1001 88.8543 54.7145 88.8383 54.3064V54.1847ZM49.994 54.1847V51.5575H48.8435V52.1991C48.6497 51.946 48.3977 51.7434 48.1088 51.6086C47.8199 51.4738 47.5027 51.4107 47.1842 51.4248C46.4508 51.4248 45.7474 51.7161 45.2287 52.2347C44.7101 52.7534 44.4187 53.4568 44.4187 54.1903C44.4187 54.9237 44.7101 55.6271 45.2287 56.1458C45.7474 56.6644 46.4508 56.9558 47.1842 56.9558C47.5023 56.9671 47.8186 56.9028 48.107 56.7682C48.3955 56.6336 48.6479 56.4325 48.8435 56.1814V56.823H49.994V54.1847ZM45.713 54.1847C45.7303 53.8051 45.8956 53.4473 46.1733 53.1879C46.4511 52.9285 46.8194 52.7882 47.1993 52.7968C47.5793 52.8055 47.9407 52.9625 48.2064 53.2343C48.472 53.5061 48.6208 53.8711 48.6208 54.2511C48.6208 54.6312 48.472 54.9961 48.2064 55.2679C47.9407 55.5397 47.5793 55.6967 47.1993 55.7054C46.8194 55.7141 46.4511 55.5737 46.1733 55.3143C45.8956 55.0549 45.7303 54.6971 45.713 54.3175V54.1847Z" fill="#231F20"/>
<path d="M72.7099 11.264H55.2872V42.5751H72.7099V11.264Z" fill="#FF5F00"/>
<path d="M56.3934 26.9223C56.3902 23.9064 57.0732 20.9292 58.3909 18.2164C59.7085 15.5035 61.6261 13.126 63.9985 11.264C61.0611 8.95542 57.5334 7.51989 53.8187 7.12141C50.104 6.72293 46.3521 7.37759 42.9918 9.01057C39.6315 10.6435 36.7985 13.189 34.8164 16.3559C32.8344 19.5228 31.7833 23.1835 31.7833 26.9195C31.7833 30.6555 32.8344 34.3162 34.8164 37.4831C36.7985 40.6501 39.6315 43.1955 42.9918 44.8284C46.3521 46.4614 50.104 47.1161 53.8187 46.7176C57.5334 46.3191 61.0611 44.8836 63.9985 42.5751C61.6268 40.7136 59.7097 38.337 58.3921 35.6251C57.0745 32.9133 56.391 29.9373 56.3934 26.9223V26.9223Z" fill="#EB001B"/>
<path d="M96.2167 26.9223C96.2156 30.6581 95.1635 34.3183 93.1807 37.4845C91.1979 40.6507 88.3643 43.1953 85.0038 44.8273C81.6434 46.4594 77.8915 47.1132 74.1771 46.7139C70.4626 46.3147 66.9354 44.8785 63.9985 42.5695C66.3693 40.7064 68.2859 38.3291 69.6039 35.6171C70.9218 32.9051 71.6066 29.9293 71.6066 26.914C71.6066 23.8987 70.9218 20.9228 69.6039 18.2108C68.2859 15.4988 66.3693 13.1216 63.9985 11.2584C66.9358 8.94918 70.4635 7.51295 74.1784 7.1139C77.8934 6.71485 81.6456 7.36909 85.0063 9.00183C88.367 10.6346 91.2005 13.1799 93.1829 16.347C95.1653 19.514 96.2166 23.1749 96.2167 26.9112V26.9223Z" fill="#F79E1B"/>
</svg>

<svg xmlns="http://www.w3.org/2000/svg" width="128" height="64" fill="none"><rect width="128" height="64" fill="#fff" rx="6"/><path fill="#231F20" d="M43.506 56.845v-3.319a1.969 1.969 0 0 0-2.069-2.107 2.035 2.035 0 0 0-1.858.94 1.925 1.925 0 0 0-1.759-.94 1.736 1.736 0 0 0-1.548.786v-.648h-1.15v5.288h1.16v-2.91a1.244 1.244 0 0 1 1.04-1.41c.08-.005.16-.005.238 0 .764 0 1.15.498 1.15 1.394v2.943h1.162V53.93a1.244 1.244 0 0 1 1.079-1.405.745.745 0 0 1 .221 0c.785 0 1.162.498 1.162 1.394v2.943l1.172-.017Zm17.185-5.288h-1.892v-1.604h-1.161v1.604h-1.051v1.051h1.073v2.434c0 1.228.476 1.958 1.836 1.958a2.765 2.765 0 0 0 1.438-.41l-.331-.984c-.31.18-.66.283-1.018.299-.553 0-.764-.354-.764-.885v-2.412h1.903l-.033-1.05Zm9.812-.138a1.555 1.555 0 0 0-1.394.775v-.637h-1.14v5.288h1.151V53.88c0-.873.376-1.36 1.106-1.36a1.77 1.77 0 0 1 .72.133l.353-1.107a2.435 2.435 0 0 0-.818-.127h.022Zm-14.834.553a3.966 3.966 0 0 0-2.135-.553c-1.339 0-2.213.642-2.213 1.693 0 .863.642 1.393 1.826 1.56l.553.077c.63.088.929.254.929.553 0 .41-.42.642-1.206.642a2.832 2.832 0 0 1-1.759-.553l-.553.895a3.837 3.837 0 0 0 2.29.664c1.527 0 2.412-.719 2.412-1.725 0-1.007-.697-1.416-1.848-1.582l-.553-.078c-.498-.066-.896-.166-.896-.52s.376-.62 1.007-.62a3.369 3.369 0 0 1 1.66.454l.486-.907Zm30.813-.553a1.555 1.555 0 0 0-1.394.775v-.637h-1.106v5.288h1.15V53.88c0-.873.377-1.36 1.107-1.36a1.77 1.77 0 0 1 .719.133l.354-1.107a2.43 2.43 0 0 0-.819-.143l-.01.016ZM71.66 54.185a2.672 2.672 0 0 0 2.572 2.765h.249a2.798 2.798 0 0 0 1.902-.63l-.553-.93c-.399.301-.883.468-1.382.476a1.698 1.698 0 0 1 0-3.385c.5.006.985.173 1.382.476l.553-.93a2.766 2.766 0 0 0-1.902-.608 2.666 2.666 0 0 0-2.821 2.5 1.96 1.96 0 0 0 0 .266Zm10.774 0v-2.628h-1.15v.642a1.98 1.98 0 0 0-1.66-.774 2.765 2.765 0 1 0 0 5.53 2.013 2.013 0 0 0 1.66-.774v.642h1.15v-2.638Zm-4.28 0a1.56 1.56 0 1 1 0 .121v-.121ZM64.27 51.419a2.766 2.766 0 0 0 .077 5.531 3.213 3.213 0 0 0 2.212-.719l-.553-.852a2.55 2.55 0 0 1-1.537.553 1.466 1.466 0 0 1-1.582-1.294h3.921v-.453c0-1.66-1.029-2.766-2.51-2.766h-.028Zm0 1.029a1.305 1.305 0 0 1 1.338 1.278h-2.765a1.355 1.355 0 0 1 1.404-1.283l.023.005Zm28.822 1.737v-4.751h-1.106v2.765a1.98 1.98 0 0 0-1.66-.774 2.765 2.765 0 1 0 0 5.53 2.013 2.013 0 0 0 1.66-.774v.642h1.106v-2.638Zm-4.254 0a1.56 1.56 0 1 1 0 .121v-.121Zm-38.844 0v-2.628h-1.15v.642a1.98 1.98 0 0 0-1.66-.774 2.766 2.766 0 0 0 0 5.53 2.013 2.013 0 0 0 1.66-.774v.642h1.15v-2.638Zm-4.281 0a1.455 1.455 0 1 1 0 .133v-.133Z"/><path fill="#FF5F00" d="M72.71 11.264H55.287v31.311H72.71V11.264Z"/><path fill="#EB001B" d="M56.393 26.922a19.878 19.878 0 0 1 7.605-15.658 19.911 19.911 0 1 0 0 31.311 19.878 19.878 0 0 1-7.605-15.653Z"/><path fill="#F79E1B" d="M96.217 26.922A19.912 19.912 0 0 1 63.999 42.57a19.911 19.911 0 0 0 0-31.31A19.912 19.912 0 0 1 96.216 26.91v.011Z"/></svg>
